public/img/html.svg

<svg height="24" viewBox="0 0 24 24" width="24" xmlns="http://www.w3.org/2000/svg"><path d="m2.31 1 1.76 19.8 7.93 2.2 7.93-2.2 1.76-19.8zm4.69 16.42-.35-3.9h2.46l.18 2 2.71.73 2.71-.73.29-3.13h-8.43l-.65-7.34h12.16l-.22 2.43h-9.29l.22 2.52h8.85l-.64 7.42-5 1.38z" fill="#f26524"/></svg>

<svg id="a99cb9ee-80c2-40b1-aa88-332ecc7a2d30" data-name="Layer 1" xmlns="http://www.w3.org/2000/svg" width="24" height="24" viewBox="0 0 24 24">
  <defs>
    <style>
      .ac0e5431-8734-4ff1-8f5d-25750d02012c {
        fill: #f26524;
      }
    </style>
  </defs>
  <path class="ac0e5431-8734-4ff1-8f5d-25750d02012c" d="M2.31,1,4.07,20.8,12,23l7.93-2.2L21.69,1ZM7,17.42H7l-.35-3.9H9.11l.18,2,2.71.73h0l2.71-.73L15,12.39H6.57L5.92,5.05H18.08l-.22,2.43H8.57L8.79,10h8.85L17,17.42,12,18.8h0Z"/>
</svg>
